X:1
T:Montpelier, 87.87 D
T:Montpelier, 87.87 D
T:Wilbur A. Christy, 1891
T:Public Domain Courtesy of the Cyber Hymnal™
C:Wilbur A. Christy, 1891
Z:Public Domain
Z:Courtesy of the Cyber Hymnal™
%%score ( 1 2 ) ( 3 4 )
L:1/8
Q:1/4=93
M:3/4
K:Eb
V:1 treble 
V:2 treble 
V:3 bass 
V:4 bass 
V:1
 [EG]>[FA] | [GB]3 [Ac] [GB]>[FA] | [FA]2 [EG]2 [DA]>[EB] | [Ec]3 [FA] F>[Dc] | [EB]4 [EG]>[EA] | %5
 [EB]3 [F=A] [FB]>[Fc] | [Fd]2 [Fd] z [Fe]<[Fc] | [=Af]3 [Ad] [Fe]/[Ec] z/ | [DB]4 [DB]>[EB] | %9
 [FB]3 [GB] [AB]>[AB] | ([GB]>[Ac]) [GB]2 [DB]>[Ec] | [Fd]3 [Ge] [Af]>[Ad] | [Ge]4 [GB]>[GB] | %13
 [GB]3 [EG] [EA]>[EB] | (c>d) !fermata![Ae] z [^Fe]<[Fe] | [Ge]3 [EG] [Dc]/[DB] z/ | E4 |] %17
V:2
 x2 | x6 | x6 | x4 F3/2 x/ | x6 | x6 | x6 | x6 | x6 | x6 | x6 | x6 | x6 | x6 | E2 x4 | x6 | E4 |] %17
V:3
 [E,B,]>[E,E] | [E,C]3 [E,C] [E,C]>[E,B,] | [E,B,]2 [E,B,]2 [F,B,]>[G,B,] | %3
 A,3 [F,C] [D,B,]>[B,,A,] | [E,G,]4 [E,B,]>[E,F,] | [E,G,]3 [E,C] [D,B,]>[C,=A,] | %6
 [B,,B,]2 [B,,B,] z [F,=A,]<[F,E] | [F,C]3 [F,F] [F,C]/[F,=A,] z/ | [B,,B,]4 [B,,B,]>[B,,C] | %9
 [B,,D]3 [B,,E] [B,,F]>[B,,D] | [E,E]2 [E,B,]2 [B,,B,]>[B,,B,] | [B,,B,]3 [B,,B,] [B,,B,]>[B,,B,] | %12
 [E,B,]4 [E,E]>[E,E] | [E,_D]3 [E,D] [F,C]>[G,B,] | (A,>B,) !fermata![A,,C] z [=A,,_C]<[A,,C] | %15
 [B,,B,]3 [B,,B,] [B,,A,]/[B,,A,] z/ | [E,G,]4 |] %17
V:4
 x2 | x6 | x6 | A,3 x3 | x6 | x6 | x6 | x6 | x6 | x6 | x6 | x6 | x6 | x6 | =A,2 x4 | x6 | x4 |] %17

